**kern	**silbe	**harmony	**phrase	**leadinstrument	**rhyme	**timestamp	**harte
*ICvox	*	*M4/4	*	*	*	*	*M4/4
*VRlead	*	*	*	*	*	*	*
*Hstimme	*	*	*	*	*	*	*
*A:	*	*A:	*	*	*	*	*A:
*M4/4	*	*	*	*	*	*	*
*clefG2	*	*	*	*	*	*	*
r;	.	1r;	.	r	.	0	N.C.
=1	=1	=1	=1	=1	=1	=1	=1
*>Letter>A	*>Letter>A	*>Letter>A	*>Letter>A	*>Letter>A	*>Letter>A	*>Letter>A	*>Letter>A
*>Label>Intro	*>Label>Intro	*>Label>Intro	*>Label>Intro	*>Label>Intro	*>Label>Intro	*>Label>Intro	*>Label>Intro
1r	.	1AM	newline	guitar	.	0.05	A:maj
=2	=2	=2	=2	=2	=2	=2	=2
1r	.	1AM	.	guitar	.	2.751	A:maj
=3	=3	=3	=3	=3	=3	=3	=3
1r	.	1AM	.	guitar	.	5.452	A:maj
=4	=4	=4	=4	=4	=4	=4	=4
1r	.	1AM	.	guitar	.	8.153	A:maj
=5	=5	=5	=5	=5	=5	=5	=5
1r	.	1AM	.	guitar	.	10.854	A:maj
=6	=6	=6	=6	=6	=6	=6	=6
1r	.	1AM	.	guitar	.	13.555	A:maj
=7	=7	=7	=7	=7	=7	=7	=7
1r	.	1AM	.	guitar	.	16.256	A:maj
=8	=8	=8	=8	=8	=8	=8	=8
1r	.	1AM	.	guitar	.	18.957	A:maj
=9	=9	=9	=9	=9	=9	=9	=9
1r	.	1AM	.	guitar	.	21.658	A:maj
=10	=10	=10	=10	=10	=10	=10	=10
1r	.	1AM	.	guitar	.	24.359	A:maj
=11	=11	=11	=11	=11	=11	=11	=11
1r	.	1AM	.	guitar	.	27.06	A:maj
=12	=12	=12	=12	=12	=12	=12	=12
1r	.	1AM	.	guitar	.	.	A:maj
=13	=13	=13	=13	=13	=13	=13	=13
*>Letter>A	*>Letter>A	*>Letter>A	*>Letter>A	*>Letter>A	*>Letter>A	*>Letter>A	*>Letter>A
*>Label>Verse	*>Label>Verse	*>Label>Verse	*>Label>Verse	*>Label>Verse	*>Label>Verse	*>Label>Verse	*>Label>Verse
16c#	I	1AM	newline	voice	.	43.266	A:maj
16c#	know	.	.	.	.	.	.
16c#	a	.	.	.	.	.	.
16e	cat	.	.	.	.	.	.
8r	.	.	.	.	.	.	.
8c#	named	.	.	.	.	.	.
8B	Way-	.	.	.	.	.	.
8A	-Out	.	.	.	.	.	.
16A	Wi-	.	.	.	(A	.	.
[8.A	-llie	.	.	.	a)	.	.
=14	=14	=14	=14	=14	=14	=14	=14
4A]	_	1AM	.	voice	.	.	A:maj
2r	.	.	.	.	.	.	.
8r	.	.	.	.	.	.	.
16c#	Got	.	.	.	.	.	.
16c#	a	.	.	.	.	.	.
=15	=15	=15	=15	=15	=15	=15	=15
8c#	cool	1AM	.	voice	.	.	A:maj
16c#	lit-	.	.	.	.	.	.
16c#	-tle	.	.	.	.	.	.
8B	chick	.	.	.	.	.	.
8A	named	.	.	.	.	.	.
8A	Roc-	.	.	.	.	.	.
8A	-king	.	.	.	.	.	.
16F#	Mil-	.	.	.	(A	.	.
[8.E	-lie	.	.	.	a)	.	.
=16	=16	=16	=16	=16	=16	=16	=16
4E]	_	1AM	.	voice	.	.	A:maj
2r	.	.	.	.	.	.	.
8r	.	.	.	.	.	.	.
16d	He	.	.	.	.	.	.
16d	can	.	.	.	.	.	.
=17	=17	=17	=17	=17	=17	=17	=17
8d	walk	1DM	newline	voice	.	53.948	D:maj
8d	and	.	.	.	.	.	.
8d	stroll	.	.	.	.	.	.
8d	and	.	.	.	.	.	.
8e	Su-	.	.	.	.	.	.
16e	-sie	.	.	.	.	.	.
[16d	Q	.	.	.	B	.	.
4d]	_	.	.	.	.	.	.
=18	=18	=18	=18	=18	=18	=18	=18
2r	.	2.DM	.	voice	.	.	D:maj
4r	.	.	.	.	.	.	.
8r	.	4CM	.	voice	.	.	C:5
16r	.	.	.	.	.	.	.
16A	And	.	.	.	.	.	.
=19	=19	=19	=19	=19	=19	=19	=19
8c#	do	1AM	.	voice	.	.	A:maj
8e	that	.	.	.	.	.	.
8B	cra-	.	.	.	.	.	.
16A	-zy	.	.	.	.	.	.
[16A	hand	.	.	.	.	.	.
8A]	_	.	.	.	.	.	.
4A	jive,	.	.	.	.	.	.
[8E	too	.	.	.	B	.	.
=20	=20	=20	=20	=20	=20	=20	=20
4E]	_	1AM	.	voice	.	.	A:maj
2r	.	.	.	.	.	.	.
4r	.	.	.	.	.	.	.
=21	=21	=21	=21	=21	=21	=21	=21
*>Letter>A	*>Letter>A	*>Letter>A	*>Letter>A	*>Letter>A	*>Letter>A	*>Letter>A	*>Letter>A
*>Label>Verse	*>Label>Verse	*>Label>Verse	*>Label>Verse	*>Label>Verse	*>Label>Verse	*>Label>Verse	*>Label>Verse
8c#	Ma-	1AM	newline	voice	.	64.739	A:maj
16c#	-ma,	.	.	.	.	.	.
[16e	ma-	.	.	.	.	.	.
16e]	_	.	.	.	.	.	.
16e	-ma,	.	.	.	.	.	.
16c#	look	.	.	.	.	.	.
16B	at	.	.	.	.	.	.
8B	Un-	.	.	.	.	.	.
8A	-cle	.	.	.	.	.	.
[4A	Joe	.	.	.	C	.	.
=22	=22	=22	=22	=22	=22	=22	=22
4A]	_	1AM	.	voice	.	.	A:maj
2r	.	.	.	.	.	.	.
4r	.	.	.	.	.	.	.
=23	=23	=23	=23	=23	=23	=23	=23
16c#	Do-	1AM	.	voice	.	.	A:maj
16c#	-ing	.	.	.	.	.	.
16c#	the	.	.	.	.	.	.
[16B	hand	.	.	.	.	.	.
16B]	_	.	.	.	.	.	.
8A	jive	.	.	.	.	.	.
16A	with	.	.	.	.	.	.
8A	sis-	.	.	.	.	.	.
8A	-ter	.	.	.	.	.	.
4E	Flo	.	.	.	C	.	.
=24	=24	=24	=24	=24	=24	=24	=24
1r	.	1AM	.	voice	.	.	A:maj
=25	=25	=25	=25	=25	=25	=25	=25
16d	Grand-	1DM	newline	voice	.	75.496	D:maj
16d	-ma	.	.	.	.	.	.
8d	gave	.	.	.	.	.	.
8d	ba-	.	.	.	.	.	.
16d	-by	.	.	.	.	.	.
[16e	sis-	.	.	.	.	.	.
16e]	_	.	.	.	.	.	.
16e	-ter	.	.	.	.	.	.
16e	a	.	.	.	.	.	.
[16d	dime	.	.	.	D	.	.
8d]	_	.	.	.	.	.	.
[8c	_	.	.	.	.	.	.
=26	=26	=26	=26	=26	=26	=26	=26
4c]	_	2.DM	.	voice	.	.	D:maj
2r	.	.	.	.	.	.	.
8r	.	4CM	.	voice	.	.	C:5
16r	.	.	.	.	.	.	.
16A	Said,	.	.	.	.	.	.
=27	=27	=27	=27	=27	=27	=27	=27
8c#	Do	1AM	.	voice	.	.	A:maj
8e	that	.	.	.	.	.	.
8B	hand	.	.	.	.	.	.
8A	jive	.	.	.	.	.	.
8A	one	.	.	.	.	.	.
4A	more	.	.	.	.	.	.
[8E	time	.	.	.	D	.	.
=28	=28	=28	=28	=28	=28	=28	=28
4.E]	_	1AM	.	voice	.	.	A:maj
4r	.	.	.	.	.	.	.
8r	.	.	.	.	.	.	.
4c	Hand	.	.	.	.	.	.
=29	=29	=29	=29	=29	=29	=29	=29
*>Letter>B	*>Letter>B	*>Letter>B	*>Letter>B	*>Letter>B	*>Letter>B	*>Letter>B	*>Letter>B
*>Label>Chorus	*>Label>Chorus	*>Label>Chorus	*>Label>Chorus	*>Label>Chorus	*>Label>Chorus	*>Label>Chorus	*>Label>Chorus
4.A	jive	1DM	newline	voice	.	86.254	D:maj
4r	.	.	.	.	.	.	.
8r	.	.	.	.	.	.	.
4c#	hand	.	.	.	.	.	.
=30	=30	=30	=30	=30	=30	=30	=30
4.c#	jive	1AM	.	voice	.	.	A:maj
4r	.	.	.	.	.	.	.
8r	.	.	.	.	.	.	.
4c#	hand	.	.	.	.	.	.
=31	=31	=31	=31	=31	=31	=31	=31
4.B	jive	1EMm	.	voice	.	.	E:7
8r	.	.	.	.	.	.	.
8e	Do	.	.	.	.	.	.
8d	that	.	.	.	.	.	.
16c#	cra-	.	.	.	.	.	.
16A	-zy	.	.	.	.	.	.
8A	hand	.	.	.	.	.	.
=32	=32	=32	=32	=32	=32	=32	=32
*>Letter>A	*>Letter>A	*>Letter>A	*>Letter>A	*>Letter>A	*>Letter>A	*>Letter>A	*>Letter>A
*>Label>Interlude	*>Label>Interlude	*>Label>Interlude	*>Label>Interlude	*>Label>Interlude	*>Label>Interlude	*>Label>Interlude	*>Label>Interlude
4.A	jive	1AM	->newline	voice	.	94.42	A:maj
2r	.	.	.	.	.	.	.
8r	.	.	.	.	.	.	.
=33	=33	=33	=33	=33	=33	=33	=33
1r	.	1AM	.	voice	.	.	A:maj
=34	=34	=34	=34	=34	=34	=34	=34
*>Letter>A	*>Letter>A	*>Letter>A	*>Letter>A	*>Letter>A	*>Letter>A	*>Letter>A	*>Letter>A
*>Label>Verse	*>Label>Verse	*>Label>Verse	*>Label>Verse	*>Label>Verse	*>Label>Verse	*>Label>Verse	*>Label>Verse
16c#	Doc-	1AM	newline	voice	.	107.722	A:maj
16c#	-tor	.	.	.	.	.	.
16c#	and	.	.	.	.	.	.
16c#	a	.	.	.	.	.	.
16e	law-	.	.	.	.	.	.
16e	-yer	.	.	.	.	.	.
16c#	and	.	.	.	.	.	.
16B	an	.	.	.	.	.	.
8B	In-	.	.	.	.	.	.
8A	-dian	.	.	.	.	.	.
4A	chief	.	.	.	E	.	.
=35	=35	=35	=35	=35	=35	=35	=35
1r	.	1AM	.	voice	.	.	A:maj
=36	=36	=36	=36	=36	=36	=36	=36
16c#	They	1AM	.	voice	.	.	A:maj
8c#	all	.	.	.	.	.	.
[16B	dig	.	.	.	.	.	.
8B]	_	.	.	.	.	.	.
8A	that	.	.	.	.	.	.
8A	cra-	.	.	.	.	.	.
16A	-zy	.	.	.	.	.	.
[16E	beat	.	.	.	E	.	.
4E_	_	.	.	.	.	.	.
=37	=37	=37	=37	=37	=37	=37	=37
4E]	_	1AM	.	voice	.	.	A:maj
2r	.	.	.	.	.	.	.
4r	.	.	.	.	.	.	.
=38	=38	=38	=38	=38	=38	=38	=38
16d	Way-	1DM	newline	voice	.	118.521	D:maj
8d	-Out	.	.	.	.	.	.
[16d	Wi-	.	.	.	.	.	.
16d]	_	.	.	.	.	.	.
16d	-llie	.	.	.	.	.	.
16d	gave	.	.	.	.	.	.
16d	them	.	.	.	.	.	.
8e	all	.	.	.	.	.	.
16e	a	.	.	.	.	.	.
[16d	treat	.	.	.	E	.	.
4d]	_	.	.	.	.	.	.
=39	=39	=39	=39	=39	=39	=39	=39
2r	.	2.DM	.	voice	.	.	D:maj
4r	.	.	.	.	.	.	.
8r	.	4CM	.	voice	.	.	C:5
16A	When	.	.	.	.	.	.
16A	he	.	.	.	.	.	.
=40	=40	=40	=40	=40	=40	=40	=40
8c#	did	1AM	.	voice	.	.	A:maj
8e	that	.	.	.	.	.	.
8B	hand	.	.	.	.	.	.
8A	jive	.	.	.	.	.	.
16A	with	.	.	.	.	.	.
8.A	his	.	.	.	.	.	.
[4E	feet	.	.	.	E	.	.
=41	=41	=41	=41	=41	=41	=41	=41
4E]	_	1AM	.	voice	.	.	A:maj
2r	.	.	.	.	.	.	.
4c	Hand	.	.	.	.	.	.
=42	=42	=42	=42	=42	=42	=42	=42
*>Letter>B	*>Letter>B	*>Letter>B	*>Letter>B	*>Letter>B	*>Letter>B	*>Letter>B	*>Letter>B
*>Label>Chorus	*>Label>Chorus	*>Label>Chorus	*>Label>Chorus	*>Label>Chorus	*>Label>Chorus	*>Label>Chorus	*>Label>Chorus
4.A	jive	1DM	newline	voice	.	129.291	D:maj
4r	.	.	.	.	.	.	.
8r	.	.	.	.	.	.	.
4c#	hand	.	.	.	.	.	.
=43	=43	=43	=43	=43	=43	=43	=43
4.A	jive	1AM	.	voice	.	.	A:maj
4r	.	.	.	.	.	.	.
8r	.	.	.	.	.	.	.
4c#	hand	.	.	.	.	.	.
=44	=44	=44	=44	=44	=44	=44	=44
4.B	jive	1EMm	.	voice	.	.	E:7
8r	.	.	.	.	.	.	.
8e	Do	.	.	.	.	.	.
8d	that	.	.	.	.	.	.
16c#	cra-	.	.	.	.	.	.
16A	-zy	.	.	.	.	.	.
8A	hand	.	.	.	.	.	.
=45	=45	=45	=45	=45	=45	=45	=45
*>Letter>A	*>Letter>A	*>Letter>A	*>Letter>A	*>Letter>A	*>Letter>A	*>Letter>A	*>Letter>A
*>Label>Interlude	*>Label>Interlude	*>Label>Interlude	*>Label>Interlude	*>Label>Interlude	*>Label>Interlude	*>Label>Interlude	*>Label>Interlude
4.A	jive	1AM	->newline	guitar	.	137.483	A:maj
2r	.	.	.	.	.	.	.
8r	.	.	.	.	.	.	.
=46	=46	=46	=46	=46	=46	=46	=46
1r	.	1AM	.	guitar	.	.	A:maj
=47	=47	=47	=47	=47	=47	=47	=47
1r	.	1AM	.	guitar	.	.	A:maj
=48	=48	=48	=48	=48	=48	=48	=48
1r	.	1AM	.	guitar	.	.	A:maj
=49	=49	=49	=49	=49	=49	=49	=49
1r	.	1AM	.	guitar	.	.	A:maj
=50	=50	=50	=50	=50	=50	=50	=50
1r	.	1AM	.	guitar	.	.	A:maj
=51	=51	=51	=51	=51	=51	=51	=51
*>Letter>A	*>Letter>A	*>Letter>A	*>Letter>A	*>Letter>A	*>Letter>A	*>Letter>A	*>Letter>A
*>Label>Verse	*>Label>Verse	*>Label>Verse	*>Label>Verse	*>Label>Verse	*>Label>Verse	*>Label>Verse	*>Label>Verse
16c#	Wil-	1AM	newline	voice	(A	230.524	A:maj
16c#	-lie	.	.	.	a)	.	.
16c#	and	.	.	.	.	.	.
[16e	Mil-	.	.	.	(A	.	.
16e]	_	.	.	.	.	.	.
16e	-lie	.	.	.	a)	.	.
8c#	got	.	.	.	.	.	.
16B	mar-	.	.	.	.	.	.
16A	-ried	.	.	.	.	.	.
[8A	last	.	.	.	.	.	.
16A]	_	.	.	.	.	.	.
[8.A	fall	.	.	.	F	.	.
=52	=52	=52	=52	=52	=52	=52	=52
4A]	_	1AM	.	voice	.	.	A:maj
2r	.	.	.	.	.	.	.
16r	.	.	.	.	.	.	.
16A	They	.	.	.	.	.	.
16c#	had	.	.	.	.	.	.
16c#	a	.	.	.	.	.	.
=53	=53	=53	=53	=53	=53	=53	=53
16c#	lit-	1AM	.	voice	.	.	A:maj
16c#	-tle	.	.	.	.	.	.
16c#	Wil-	.	.	.	.	.	.
16c#	-lie	.	.	.	.	.	.
16B	ju-	.	.	.	.	.	.
16A	-nior	.	.	.	.	.	.
8A	and	.	.	.	.	.	.
16A	that	.	.	.	.	.	.
8A	ain't	.	.	.	.	.	.
[16E	all	.	.	.	F	.	.
4E]	_	.	.	.	.	.	.
=54	=54	=54	=54	=54	=54	=54	=54
2r	.	1AM	.	voice	.	.	A:maj
4r	.	.	.	.	.	.	.
8r	.	.	.	.	.	.	.
16d	Well,	.	.	.	.	.	.
16d	the	.	.	.	.	.	.
=55	=55	=55	=55	=55	=55	=55	=55
8d	kids	1DM	newline	voice	.	241.282	D:maj
8d	got	.	.	.	.	.	.
16d	cra-	.	.	.	.	.	.
16d	-zy	.	.	.	.	.	.
16d	and	.	.	.	.	.	.
16d	it's	.	.	.	.	.	.
8e	plain	.	.	.	.	.	.
16e	to	.	.	.	.	.	.
[16d	see	.	.	.	E	.	.
4d]	_	.	.	.	.	.	.
=56	=56	=56	=56	=56	=56	=56	=56
2r	.	2.DM	.	voice	.	.	D:maj
4r	.	.	.	.	.	.	.
8r	.	4CM	.	voice	.	.	C:5
16r	.	.	.	.	.	.	.
16A	Uh	.	.	.	.	.	.
=57	=57	=57	=57	=57	=57	=57	=57
16c#	Do-	1AM	.	voice	.	.	A:maj
16c#	-ing	.	.	.	.	.	.
16e	the	.	.	.	.	.	.
[16B	hand	.	.	.	.	.	.
8B]	_	.	.	.	.	.	.
8A	jive	.	.	.	.	.	.
8A	on	.	.	.	.	.	.
8A	T.-	.	.	.	E	.	.
4E	-V.	.	.	.	E	.	.
=58	=58	=58	=58	=58	=58	=58	=58
2r	.	1AM	.	voice	.	.	A:maj
4r	.	.	.	.	.	.	.
4c	Hand	.	.	.	.	.	.
=59	=59	=59	=59	=59	=59	=59	=59
*>Letter>B	*>Letter>B	*>Letter>B	*>Letter>B	*>Letter>B	*>Letter>B	*>Letter>B	*>Letter>B
*>Label>Chorus	*>Label>Chorus	*>Label>Chorus	*>Label>Chorus	*>Label>Chorus	*>Label>Chorus	*>Label>Chorus	*>Label>Chorus
4.A	jive	1DM	newline	voice	.	252.106	D:maj
4r	.	.	.	.	.	.	.
8r	.	.	.	.	.	.	.
4c#	hand	.	.	.	.	.	.
=60	=60	=60	=60	=60	=60	=60	=60
4.c#	jive	1AM	.	voice	.	.	A:maj
4r	.	.	.	.	.	.	.
8r	.	.	.	.	.	.	.
4c#	hand	.	.	.	.	.	.
=61	=61	=61	=61	=61	=61	=61	=61
4.B	jive	1EMm	.	voice	.	.	E:7
8r	.	.	.	.	.	.	.
8e	Do	.	.	.	.	.	.
8d	that	.	.	.	.	.	.
16c#	cra-	.	.	.	.	.	.
16A	-zy	.	.	.	.	.	.
8A	hand	.	.	.	.	.	.
=62	=62	=62	=62	=62	=62	=62	=62
*>Letter>A	*>Letter>A	*>Letter>A	*>Letter>A	*>Letter>A	*>Letter>A	*>Letter>A	*>Letter>A
*>Label>Outro	*>Label>Outro	*>Label>Outro	*>Label>Outro	*>Label>Outro	*>Label>Outro	*>Label>Outro	*>Label>Outro
4.A	jive	1AM	->newline	guitar	.	260.264	A:maj
8r	.	.	.	.	.	.	.
8.e	Hey	.	.	.	.	.	.
16e	hey	.	.	.	.	.	.
16d	_	.	.	.	.	.	.
8.c	_	.	.	.	.	.	.
=63	=63	=63	=63	=63	=63	=63	=63
1r	.	1AM	.	guitar	.	.	A:maj
=64	=64	=64	=64	=64	=64	=64	=64
1r	.	1AM	.	guitar	.	.	A:maj
=65	=65	=65	=65	=65	=65	=65	=65
1r	.	1AM	.	guitar	.	.	A:maj
=66	=66	=66	=66	=66	=66	=66	=66
1r	.	1AM	.	guitar	.	.	A:maj
=67	=67	=67	=67	=67	=67	=67	=67
1r	.	1AM	.	guitar	.	.	A:maj
=68	=68	=68	=68	=68	=68	=68	=68
1r	.	1AM	.	guitar	.	.	A:maj
=69	=69	=69	=69	=69	=69	=69	=69
1r	.	1AM	.	guitar	.	.	A:maj
=70	=70	=70	=70	=70	=70	=70	=70
1r	.	1AM	.	guitar	.	.	A:maj
=71	=71	=71	=71	=71	=71	=71	=71
1r	.	1AM	.	guitar	.	.	A:maj
=72	=72	=72	=72	=72	=72	=72	=72
1r	.	1AM	.	guitar	.	.	A:maj
=73	=73	=73	=73	=73	=73	=73	=73
1r	.	1AM	.	guitar	.	.	A:maj
=74	=74	=74	=74	=74	=74	=74	=74
1r	.	1AM	.	guitar	.	.	A:maj
=75	=75	=75	=75	=75	=75	=75	=75
1r	.	1AM	.	guitar	.	.	A:maj
=76	=76	=76	=76	=76	=76	=76	=76
1r	.	1AM	.	guitar	.	.	A:maj
=77	=77	=77	=77	=77	=77	=77	=77
1r	.	1AM	.	guitar	.	.	A:maj
=78	=78	=78	=78	=78	=78	=78	=78
1r	.	1AM	.	guitar	.	.	A:maj
r;	.	1r;	.	r	.	.	N.C.
*-	*-	*-	*-	*-	*-	*-	*-
!!!BillboardChartDate: 1974/12/21
!!!BillboardPeak: 26
!!!BillboardWeeksOnChart: 9
!!!COC: Eric Clapton
!!!EMD: Mcgill transcriptions is way too long album version. Cut it down and removed timestamps. -Nat
!!!ENC: Nathaniel Condit-Schultz
!!!EST: Awating manual error checking and editing.
!!!OTL: Willie And The Hand Jive
!!!RDF**chordsym: original McGill chord annotation + (implied pitch class set, with bass pitch in first position)
!!!RDF**harmony: **recip + pitch class of root + harmonic quality
!!!RDF**leadinstrument: original McGill primary instrumentation annotation
!!!RDF**phrase: newline = linebreak in original McGill transcription
!!!RDF**timestamp: McGill audio timestamp in seconds
!!!RDT: 2017/01/12/
!!!SampleActualRank: 36
!!!SampleID#: 0194
!!!SampleTargetRank: 38
